X:1
T:Title
%%score { ( 1 3 ) | ( 2 4 ) }
L:1/8
M:9/8
K:Eb
V:1 treble nm="Grand Piano"
V:3 treble 
V:2 treble 
V:4 treble 
V:1
 z3 z3[Q:1/4=100] GA=A | [GB]-[B,G-B-][B,G-B-] [B,GB]2 [B,GB] [EG][GB][Ge] | [Ad]6 dcB | %3
 [FA]-[B,F-A-][B,F-A-] [B,FA]2 [=EG] [FA]B[B,FA] | [B,EG]6 GA=A | %5
 [GB]-[B,G-B-][B,G-B-] [B,GB]2 [B,GB] [EG][GB][Ge] | d6 Bcd | [Ge]6 z3 | [DB]6 [GB][GB][GB] | %9
 [GB]3 A2 [B,FA] [B,FA]2 [B,FA] | [FA]3 z3 z3 | G3 F2 F edc | f6 Bcd | [Ge]6 z3 | [EAc]6 ccc | %15
 [GB]3- [GB]cB [FA][GB][FA] | G6 Bc[Ad] | [Ge]3- [Ge]2 [Ge] [Gf]2 [Ge] | c6 ccc | e3 B3 AG[A,DF] | %20
[M:3/4] [G,E]6 |] %21
V:2
 z3 z3 EF_G | E,E,E, E,2 E, [E,B,]2 [E,B,] | [B,,B,]6[K:treble] AAG | z3 z3 .[B,,B,]3 | %4
 E,6[K:treble] EF_G | E,E,E, E,2 E, [E,B,]2 [E,B,] | [F,B,F]6 DEF | %7
 [F,=A,]F,F, F,2 [F,A,G] [F,A,F]2 [F,A,E] | [B,,B,]6 [B,,B,][B,,B,][B,,B,] | [B,,B,]6 z3 | %10
 z3 E3 [E,B,E][E,B,E][E,B,E] | E3 E2 [F,=A,E][K:treble] FF[A,EF] | [B,DA]6 AAA | z3 z3 .[E,B,]3 | %14
 A,6[K:treble] AAA | B,B,B, z A[B,G][K:bass] [B,,B,]2 [B,,B,] | %16
 [E,B,E]6[K:treble] [B,A][B,A][K:bass][B,,B,] | [E,B,]3- [E,B,]2 [E,B,] [E,B,]2 [E,E] | %18
 [A,EA]6 [=A,E_G][A,EG][A,EG] | [B,EG]3 [B,EG]3 FE[K:bass]B,, |[M:3/4] E,6 |] %21
V:3
 x9 | .B,3 z3 z3 | x9 | .B,3 z3 z3 | x9 | .B,3 z3 z3 | x9 | z =A,A, A,2 e d2 c | x9 | x9 | %10
 B,3- [B,G]3 GGG | x9 | x9 | z B,B, B,2 [B,GB] [EG]A[EGB] | x9 | x9 | x9 | x9 | x9 | x9 | %20
[M:3/4] x6 |] %21
V:4
 x9 | x9 | x6[K:treble] x3 | B,,B,,B,, B,,2 [B,,B,] z GB,, | x6[K:treble] x3 | x9 | x9 | x9 | x9 | %9
 z3 F2 B,, B,,C,D, | E,6 z3 | [F,=A,]6[K:treble] .[F,A,]3 | x9 | [E,B,]E,E, E,2 E, z FE, | %14
 x6[K:treble] x3 | z3 .B,3[K:bass] z3 | x6[K:treble] x2[K:bass] x | x9 | x9 | z3 z3 .B,3[K:bass] | %20
[M:3/4] x6 |] %21

